findly-builder/apps/searchassist/src/assets/icons/landing/data-integration.svg

<svg width="36" height="36" viewBox="0 0 36 36" fill="none" xmlns="http://www.w3.org/2000/svg">
<path d="M31.5 27.75C31.5 29.8215 29.8215 31.5 27.75 31.5H8.25C6.17925 31.5 4.5 29.8215 4.5 27.75V8.25C4.5 6.1785 6.17925 4.5 8.25 4.5H27.75C29.8215 4.5 31.5 6.1785 31.5 8.25V27.75Z" fill="#85B7FE"/>
<path d="M27.75 13.5H8.25C7.836 13.5 7.5 13.164 7.5 12.75V8.25C7.5 7.836 7.836 7.5 8.25 7.5H27.75C28.164 7.5 28.5 7.836 28.5 8.25V12.75C28.5 13.164 28.164 13.5 27.75 13.5ZM27.75 21H8.25C7.836 21 7.5 20.664 7.5 20.25V15.75C7.5 15.336 7.836 15 8.25 15H27.75C28.164 15 28.5 15.336 28.5 15.75V20.25C28.5 20.664 28.164 21 27.75 21ZM27.75 28.5H8.25C7.836 28.5 7.5 28.164 7.5 27.75V23.25C7.5 22.836 7.836 22.5 8.25 22.5H27.75C28.164 22.5 28.5 22.836 28.5 23.25V27.75C28.5 28.164 28.164 28.5 27.75 28.5Z" fill="#E7F1FF"/>
<path d="M28.286 19.2856C26.581 19.2856 24.9459 19.9629 23.7403 21.1685C22.5347 22.3741 21.8574 24.0093 21.8574 25.7142C21.8574 27.4192 22.5347 29.0543 23.7403 30.2599C24.9459 31.4655 26.581 32.1428 28.286 32.1428C29.991 32.1428 31.6261 31.4655 32.8317 30.2599C34.0373 29.0543 34.7146 27.4192 34.7146 25.7142C34.7146 24.0093 34.0373 22.3741 32.8317 21.1685C31.6261 19.9629 29.991 19.2856 28.286 19.2856Z" fill="#07377F"/>
<path d="M27 21.8569H29.5714V29.5712H27V21.8569Z" fill="white"/>
<path d="M24.4287 24.4282H32.143V26.9997H24.4287V24.4282Z" fill="white"/>
</svg>

<svg width="36" height="36" fill="none" xmlns="http://www.w3.org/2000/svg"><path d="M31.5 27.75a3.75 3.75 0 0 1-3.75 3.75H8.25a3.75 3.75 0 0 1-3.75-3.75V8.25A3.75 3.75 0 0 1 8.25 4.5h19.5a3.75 3.75 0 0 1 3.75 3.75v19.5Z" fill="#85B7FE"/><path d="M27.75 13.5H8.25a.75.75 0 0 1-.75-.75v-4.5a.75.75 0 0 1 .75-.75h19.5a.75.75 0 0 1 .75.75v4.5a.75.75 0 0 1-.75.75Zm0 7.5H8.25a.75.75 0 0 1-.75-.75v-4.5a.75.75 0 0 1 .75-.75h19.5a.75.75 0 0 1 .75.75v4.5a.75.75 0 0 1-.75.75Zm0 7.5H8.25a.75.75 0 0 1-.75-.75v-4.5a.75.75 0 0 1 .75-.75h19.5a.75.75 0 0 1 .75.75v4.5a.75.75 0 0 1-.75.75Z" fill="#E7F1FF"/><path d="M28.286 19.286a6.429 6.429 0 1 0 0 12.857 6.429 6.429 0 0 0 0-12.857Z" fill="#07377F"/><path d="M27 21.857h2.571v7.714H27v-7.714Z" fill="#fff"/><path d="M24.429 24.428h7.714V27h-7.714v-2.572Z" fill="#fff"/></svg>
